svg/transport/tyre_line.svg

<?xml version="1.0" encoding="UTF-8"?>
<svg width="24px" height="24px" viewBox="0 0 24 24" version="1.1" xmlns="http://www.w3.org/2000/svg" xmlns:xlink="http://www.w3.org/1999/xlink">
    <title>tyre_line</title>
    <g id="页面-1" stroke="none" stroke-width="1" fill="none" fill-rule="evenodd">
        <g id="Transport" transform="translate(-576.000000, -192.000000)">
            <g id="tyre_line" transform="translate(576.000000, 192.000000)">
                 <path d="M24,0 L24,24 L0,24 L0,0 L24,0 Z M12.5934901,23.257841 L12.5819402,23.2595131 L12.5108777,23.2950439 L12.4918791,23.2987469 L12.4918791,23.2987469 L12.4767152,23.2950439 L12.4056548,23.2595131 C12.3958229,23.2563662 12.3870493,23.2590235 12.3821421,23.2649074 L12.3780323,23.275831 L12.360941,23.7031097 L12.3658947,23.7234994 L12.3769048,23.7357139 L12.4804777,23.8096931 L12.4953491,23.8136134 L12.4953491,23.8136134 L12.5071152,23.8096931 L12.6106902,23.7357139 L12.6232938,23.7196733 L12.6232938,23.7196733 L12.6266527,23.7031097 L12.609561,23.275831 C12.6075724,23.2657013 12.6010112,23.2592993 12.5934901,23.257841 L12.5934901,23.257841 Z M12.8583906,23.1452862 L12.8445485,23.1473072 L12.6598443,23.2396597 L12.6498822,23.2499052 L12.6498822,23.2499052 L12.6471943,23.2611114 L12.6650943,23.6906389 L12.6699349,23.7034178 L12.6699349,23.7034178 L12.678386,23.7104931 L12.8793402,23.8032389 C12.8914285,23.8068999 12.9022333,23.8029875 12.9078286,23.7952264 L12.9118235,23.7811639 L12.8776777,23.1665331 C12.8752882,23.1545897 12.8674102,23.1470016 12.8583906,23.1452862 L12.8583906,23.1452862 Z M12.1430473,23.1473072 C12.1332178,23.1423925 12.1221763,23.1452606 12.1156365,23.1525954 L12.1099173,23.1665331 L12.0757714,23.7811639 C12.0751323,23.7926639 12.0828099,23.8018602 12.0926481,23.8045676 L12.108256,23.8032389 L12.3092106,23.7104931 L12.3186497,23.7024347 L12.3186497,23.7024347 L12.3225043,23.6906389 L12.340401,23.2611114 L12.337245,23.2485176 L12.337245,23.2485176 L12.3277531,23.2396597 L12.1430473,23.1473072 Z" id="MingCute" fill-rule="nonzero"></path>
                <path d="M15.7425,2.02982 C15.831,2.05194 15.9137,2.0852 15.9896,2.12775 C17.4367,2.50836 18.6031,3.69852 19.4097,5.15031 C20.4116,6.95374 21,9.37741 21,11.9999 C21,14.6224 20.4116,17.0461 19.4097,18.8495 C18.6033,20.3011 17.437,21.4911 15.9903,21.8719 C15.9142,21.9146 15.8313,21.948 15.7425,21.9702 C12.0742375,22.8872875 9.90531375,22.6163547 8.2620174,22.0091402 L7.91757294,21.8741861 C7.80520332,21.8276926 7.69516062,21.7797938 7.58709,21.7308 C6.19138,21.098 5.04967,19.7571 4.2655,18.0928 C3.47302,16.4108 3,14.3089 3,12 C3,9.69112 3.47302,7.58924 4.2655,5.90724 C5.04966,4.24291 6.19137,2.90202 7.5871,2.26928 C7.69517063,2.22028688 7.80521328,2.17238882 7.91758282,2.1258962 L8.26202697,1.99094494 C9.90532141,1.38374494 12.0742375,1.11283663 15.7425,2.02982 Z M8.4129,4.09083 C7.5956,4.46135 6.73732,5.35338 6.07474,6.75968 C5.42047,8.14832 5,9.9548 5,12 C5,14.0452 5.42048,15.8517 6.07474,17.2403 C6.73733,18.6466 7.59562,19.5387 8.41291,19.9092 C9.22335,20.2766 10.2352,20.6116 11.8494,20.5593 C11.3652,20.0701 10.9433,19.4849 10.5903,18.8495 C9.5884,17.0461 9,14.6224 9,11.9999 C9,9.37741 9.5884,6.95374 10.5903,5.15031 C10.9432,4.51508 11.365,3.92994 11.8491,3.44078 C10.235,3.38849 9.22329,3.72345 8.4129,4.09083 Z M15,3.99992 C14.1474,3.99992 13.1652,4.6338 12.3386,6.1216 C11.5309,7.57553 11,9.65186 11,11.9999 C11,14.348 11.5309,16.4243 12.3386,17.8782 C13.1652,19.366 14.1474,19.9999 15,19.9999 C15.8526,19.9999 16.8348,19.366 17.6614,17.8782 C18.4691,16.4243 19,14.348 19,11.9999 C19,9.65186 18.4691,7.57553 17.6614,6.1216 C16.8348,4.6338 15.8526,3.99992 15,3.99992 Z M15,7.99992 C15.997,7.99992 16.6305,8.78219 16.9551,9.43138 C17.3096,10.1404 17.5,11.0499 17.5,11.9999 C17.5,12.9499 17.3096,13.8594 16.9551,14.5685 C16.6305,15.2176 15.997,15.9999 15,15.9999 C14.003,15.9999 13.3695,15.2176 13.0449,14.5685 C12.6904,13.8594 12.5,12.9499 12.5,11.9999 C12.5,11.0499 12.6904,10.1404 13.0449,9.43138 C13.3695,8.78219 14.003,7.99992 15,7.99992 Z M15,10.0603 C14.9575,10.1103 14.9004,10.1926 14.8338,10.3258 C14.6454,10.7026 14.5,11.2931 14.5,11.9999 C14.5,12.7068 14.6454,13.2972 14.8338,13.674 C14.9004,13.8073 14.9575,13.8896 15,13.9395 C15.0425,13.8896 15.0996,13.8073 15.1662,13.674 C15.3546,13.2972 15.5,12.7068 15.5,11.9999 C15.5,11.2931 15.3546,10.7026 15.1662,10.3258 C15.0996,10.1926 15.0425,10.1103 15,10.0603 Z" id="形状" fill="#09244B"></path>
            </g>
        </g>
    </g>
</svg>

<svg xmlns="http://www.w3.org/2000/svg" width="24" height="24"><g fill="none" fill-rule="evenodd"><path d="M24 0v24H0V0h24ZM12.593 23.258l-.011.002-.071.035-.02.004-.014-.004-.071-.035c-.01-.004-.019-.001-.024.005l-.004.01-.017.428.005.02.01.013.104.074.015.004.012-.004.104-.074.012-.016.004-.017-.017-.427c-.002-.01-.009-.017-.017-.018Zm.265-.113-.013.002-.185.093-.01.01-.003.011.018.43.005.012.008.007.201.093c.012.004.023 0 .029-.008l.004-.014-.034-.614c-.003-.012-.01-.02-.02-.022Zm-.715.002a.023.023 0 0 0-.027.006l-.006.014-.034.614c0 .012.007.02.017.024l.015-.002.201-.093.01-.008.004-.011.017-.43-.003-.012-.01-.01-.184-.092Z"/><path fill="#09244B" d="M15.743 2.03a1 1 0 0 1 .247.098c1.447.38 2.613 1.57 3.42 3.022C20.412 6.954 21 9.377 21 12c0 2.622-.588 5.046-1.59 6.85-.807 1.451-1.973 2.641-3.42 3.022a1.002 1.002 0 0 1-.248.098c-3.668.917-5.837.646-7.48.04l-.344-.136a10.802 10.802 0 0 1-.33-.143c-1.397-.633-2.538-1.974-3.322-3.638C3.473 16.41 3 14.309 3 12s.473-4.41 1.266-6.093C5.05 4.243 6.19 2.902 7.587 2.27c.108-.049.218-.097.33-.143l.345-.135c1.643-.607 3.812-.878 7.48.039Zm-7.33 2.06c-.817.371-1.676 1.263-2.338 2.67C5.42 8.148 5 9.955 5 12c0 2.045.42 3.852 1.075 5.24.662 1.407 1.52 2.299 2.338 2.67.81.367 1.822.702 3.436.65a7.848 7.848 0 0 1-1.259-1.71C9.588 17.046 9 14.622 9 12c0-2.623.588-5.046 1.59-6.85a7.849 7.849 0 0 1 1.26-1.71c-1.615-.052-2.627.283-3.437.65ZM15 4c-.853 0-1.835.634-2.661 2.122C11.53 7.576 11 9.652 11 12c0 2.348.53 4.424 1.339 5.878C13.165 19.366 14.147 20 15 20s1.835-.634 2.661-2.122C18.47 16.424 19 14.348 19 12c0-2.348-.53-4.424-1.339-5.878C16.835 4.634 15.853 4 15 4Zm0 4c.997 0 1.63.782 1.955 1.431.355.71.545 1.619.545 2.569s-.19 1.86-.545 2.569c-.324.649-.958 1.43-1.955 1.43-.997 0-1.63-.781-1.955-1.43-.355-.71-.545-1.62-.545-2.57 0-.95.19-1.859.545-2.568C13.37 8.782 14.003 8 15 8Zm0 2.06c-.043.05-.1.133-.166.266-.189.377-.334.967-.334 1.674s.145 1.297.334 1.674c.066.133.123.216.166.266.043-.05.1-.133.166-.266.189-.377.334-.967.334-1.674s-.145-1.297-.334-1.674A1.329 1.329 0 0 0 15 10.06Z"/></g></svg>
